packages/assets/static/images/icons/hand-tap.svg

<svg width="24" height="24" viewBox="0 0 24 24" xmlns="http://www.w3.org/2000/svg">
<path d="M5.25094 7.47998C5.25094 5.98814 5.84357 4.5574 6.89846 3.5025C7.95336 2.44761 9.3841 1.85498 10.8759 1.85498C12.3678 1.85498 13.7985 2.44761 14.8534 3.5025C15.9083 4.5574 16.5009 5.98814 16.5009 7.47998C16.5009 7.67889 16.4219 7.86966 16.2813 8.01031C16.1406 8.15096 15.9499 8.22998 15.7509 8.22998C15.552 8.22998 15.3613 8.15096 15.2206 8.01031C15.08 7.86966 15.0009 7.67889 15.0009 7.47998C15.0009 6.38596 14.5663 5.33675 13.7928 4.56317C13.0192 3.78958 11.97 3.35498 10.8759 3.35498C9.78192 3.35498 8.73271 3.78958 7.95912 4.56317C7.18554 5.33675 6.75094 6.38596 6.75094 7.47998C6.75094 7.67889 6.67192 7.86966 6.53127 8.01031C6.39062 8.15096 6.19985 8.22998 6.00094 8.22998C5.80203 8.22998 5.61126 8.15096 5.47061 8.01031C5.32996 7.86966 5.25094 7.67889 5.25094 7.47998ZM18.3759 11.605C17.9384 11.6045 17.5078 11.7138 17.1234 11.9228C17.0086 11.5674 16.8192 11.2406 16.568 10.9642C16.3167 10.6878 16.0094 10.4683 15.6665 10.3202C15.3236 10.172 14.9531 10.0988 14.5796 10.1054C14.2062 10.1119 13.8384 10.1981 13.5009 10.3581V7.47998C13.5009 6.78379 13.2244 6.11611 12.7321 5.62383C12.2398 5.13154 11.5721 4.85498 10.8759 4.85498C10.1797 4.85498 9.51207 5.13154 9.01978 5.62383C8.5275 6.11611 8.25094 6.78379 8.25094 7.47998V14.98L7.89281 14.4053C7.5426 13.8035 6.96766 13.3654 6.29446 13.1875C5.62127 13.0095 4.90496 13.1063 4.30313 13.4565C3.70129 13.8068 3.26323 14.3817 3.0853 15.0549C2.90738 15.7281 3.00417 16.4444 3.35438 17.0462L6.10313 21.7337C6.14923 21.825 6.21351 21.9059 6.29203 21.9715C6.37055 22.037 6.46164 22.0858 6.55971 22.1148C6.65778 22.1439 6.76075 22.1525 6.86229 22.1403C6.96383 22.1281 7.0618 22.0952 7.15017 22.0437C7.23854 21.9922 7.31545 21.9232 7.37616 21.8409C7.43688 21.7586 7.48012 21.6647 7.50322 21.5651C7.52633 21.4655 7.52882 21.3622 7.51053 21.2616C7.49224 21.1609 7.45356 21.0651 7.39688 20.98L4.65094 16.2925C4.57385 16.1644 4.52304 16.0223 4.50149 15.8744C4.47995 15.7265 4.48809 15.5758 4.52544 15.4311C4.56279 15.2863 4.62861 15.1505 4.71904 15.0315C4.80947 14.9125 4.92272 14.8127 5.05215 14.738C5.18158 14.6632 5.32461 14.615 5.47288 14.5962C5.62115 14.5773 5.77169 14.5882 5.91571 14.6282C6.05972 14.6682 6.19433 14.7365 6.31166 14.8291C6.42899 14.9217 6.52669 15.0367 6.59906 15.1675L6.61219 15.189L8.36344 18.0015C8.44942 18.1403 8.57832 18.2472 8.73057 18.306C8.88282 18.3649 9.05011 18.3724 9.20705 18.3276C9.36399 18.2827 9.50201 18.1879 9.60017 18.0575C9.69833 17.9271 9.75126 17.7682 9.75094 17.605V7.47998C9.75094 7.18161 9.86947 6.89546 10.0804 6.68449C10.2914 6.47351 10.5776 6.35498 10.8759 6.35498C11.1743 6.35498 11.4605 6.47351 11.6714 6.68449C11.8824 6.89546 12.0009 7.18161 12.0009 7.47998V13.855C12.0009 14.0539 12.08 14.2447 12.2206 14.3853C12.3613 14.526 12.552 14.605 12.7509 14.605C12.9499 14.605 13.1406 14.526 13.2813 14.3853C13.4219 14.2447 13.5009 14.0539 13.5009 13.855V12.73C13.5009 12.4316 13.6195 12.1455 13.8304 11.9345C14.0414 11.7235 14.3276 11.605 14.6259 11.605C14.9243 11.605 15.2105 11.7235 15.4214 11.9345C15.6324 12.1455 15.7509 12.4316 15.7509 12.73V14.605C15.7509 14.8039 15.83 14.9947 15.9706 15.1353C16.1113 15.276 16.302 15.355 16.5009 15.355C16.6999 15.355 16.8906 15.276 17.0313 15.1353C17.1719 14.9947 17.2509 14.8039 17.2509 14.605V14.23C17.2509 13.9316 17.3695 13.6455 17.5804 13.4345C17.7914 13.2235 18.0776 13.105 18.3759 13.105C18.6743 13.105 18.9605 13.2235 19.1714 13.4345C19.3824 13.6455 19.5009 13.9316 19.5009 14.23V17.605C19.5009 19.6309 18.8353 21.0081 18.8297 21.0194C18.7408 21.1973 18.7263 21.4032 18.7892 21.5918C18.8522 21.7805 18.9874 21.9364 19.1653 22.0253C19.2694 22.0779 19.3844 22.1052 19.5009 22.105C19.6403 22.1051 19.7769 22.0664 19.8954 21.9932C20.014 21.92 20.1098 21.8152 20.1722 21.6906C20.2069 21.6222 21.0019 20.0031 21.0019 17.605V14.23C21.0019 13.8852 20.9339 13.5438 20.802 13.2252C20.67 12.9067 20.4766 12.6173 20.2327 12.3735C19.9888 12.1297 19.6994 11.9364 19.3808 11.8045C19.0622 11.6727 18.7207 11.6049 18.3759 11.605Z"/>
</svg>

<svg viewBox="0 0 24 24" xmlns="http://www.w3.org/2000/svg" aria-hidden="true" fill="currentColor"><path d="M5.25 7.48a5.625 5.625 0 0 1 11.25 0 .75.75 0 1 1-1.5 0 4.125 4.125 0 0 0-8.25 0 .75.75 0 0 1-1.5 0m13.126 4.125c-.438 0-.868.109-1.253.318a2.625 2.625 0 0 0-3.622-1.565V7.48a2.625 2.625 0 1 0-5.25 0v7.5l-.358-.575a2.625 2.625 0 0 0-4.539 2.641l2.75 4.688a.75.75 0 1 0 1.293-.754L4.65 16.293a1.126 1.126 0 1 1 1.948-1.125l.013.021 1.751 2.813a.75.75 0 0 0 1.388-.397V7.48a1.125 1.125 0 0 1 2.25 0v6.375a.75.75 0 0 0 1.5 0V12.73a1.125 1.125 0 0 1 2.25 0v1.875a.75.75 0 0 0 1.5 0v-.375a1.125 1.125 0 0 1 2.25 0v3.375c0 2.026-.666 3.403-.671 3.414a.75.75 0 0 0 1.342.672c.035-.069.83-1.688.83-4.086V14.23a2.627 2.627 0 0 0-2.626-2.625"/></svg>
